X: 14687
T: Gan Ainm
R: jig
M: 6/8
K: Gmajor
F3 DFA|dcA d2e|fdd cAA|dcA G2g|
f3 edc|dcA d2e|fdd ded|1 cAF GAG:|2 cAF GAB||
cBc fed|cAB c3|cAA fed|cAF GAG|
cBc fed|cAB cde|faf ded|1 cAF G3:|2 cAF GAG||

